X: 21811
T: SWAMP ANGEL HORNPIPE
R: hornpipe
B: K\"ohler's Violin Repository, v.2, 1885 p.181 #1
F: http://www.archive.org/details/klersviolinrepos02rugg
Z: 2012 John Chambers <jc:trillian.mit.edu>
M: C|
L: 1/8
K: A
u((3EFG) !segno!|\
A2((3cBA) FAEA | CEAc {c}BABc | d2((3fed) (ceAc) | ((3dcB) ((3cBA) BAFE |
A2((3cBA) FAEA | CEAc {c}BABc | defg ((3agf) ((3efg) | afec A2 :||: z2 |
v((3cBA) (eA) (fA) (eA) | ((3cBA) (ec) dBGB | ((3cBA) (ec) ((3fec) ((3efg) | aecA {c}BAFE |
((3cBA) (eA) (fA) (eA) | (ae)c'a bg ((3efg) | afge fdec | ((3dcB) ((3cBA) BAGB !segno!:|

%%sep 2 1 500

